svgs/sharp-light/bus-school.svg

<svg xmlns="http://www.w3.org/2000/svg" viewBox="0 0 512 512"><!--! Font Awesome Pro 6.6.0 by @fontawesome - https://fontawesome.com License - https://fontawesome.com/license (Commercial License) Copyright 2024 Fonticons, Inc. --><path d="M96 128l144 0 32 0 144 0 0-47.4C405.1 65.5 365.2 32 256 32c-54.3 0-93.2 9.6-119.5 21.1c-22.9 10-35.3 21-40.5 27.6L96 128zm0 32l0 93.2 0 2.8 144 0 0-16 0-80L96 160zm320 96l0-2.8 0-93.2-144 0 0 80 0 16 144 0zM64 160l0-32 0-52.1 0-4.2 2-3.6C74 53.9 93.4 37 123.7 23.8C154.5 10.3 198 0 256 0C379.7 0 430.8 41 446 68.1l2 3.6 0 4.2 0 52.1 0 32 0 93.2 0 2.8 16 0 16 0 0 16 0 160 0 16-16 0-16 0 0 48 0 16-32 0 0-16 0-48L96 448l0 48 0 16-32 0 0-16 0-48-16 0-16 0 0-16 0-160 0-16 16 0 16 0 0-2.8L64 160zM448 416l0-128L64 288l0 128 32 0 320 0 32 0zM104 352a24 24 0 1 1 48 0 24 24 0 1 1 -48 0zm256 0a24 24 0 1 1 48 0 24 24 0 1 1 -48 0zM208 64l96 0 16 0 0 32-16 0-96 0-16 0 0-32 16 0zM32 128l0 16 0 64 0 16L0 224l0-16 0-64 0-16 32 0zm480 16l0 64 0 16-32 0 0-16 0-64 0-16 32 0 0 16z"/></svg>

<svg xmlns="http://www.w3.org/2000/svg" viewBox="0 0 512 512"><!--! Font Awesome Pro 6.4.0 by @fontawesome - https://fontawesome.com License - https://fontawesome.com/license (Commercial License) Copyright 2023 Fonticons, Inc. --><path d="M96 128H240h32H416V80.6C405.1 65.5 365.2 32 256 32c-54.3 0-93.2 9.6-119.5 21.1c-22.9 10-35.3 21-40.5 27.6V128zm0 32v93.2V256H240V240 160H96zm320 96v-2.8V160H272v80 16H416zM64 160V128 75.9 71.7l2-3.6C74 53.9 93.4 37 123.7 23.8C154.5 10.3 198 0 256 0C379.7 0 430.8 41 446 68.1l2 3.6v4.2V128v32 93.2V256h16 16v16V432v16H464 448v48 16H416V496 448H96v48 16H64V496 448H48 32V432 272 256H48 64v-2.8V160zM448 416V288H64V416H96 416h32zM104 352a24 24 0 1 1 48 0 24 24 0 1 1 -48 0zm256 0a24 24 0 1 1 48 0 24 24 0 1 1 -48 0zM208 64h96 16V96H304 208 192V64h16zM32 128v16 64 16H0V208 144 128H32zm480 16v64 16H480V208 144 128h32v16z"/></svg>
